local/share/icons/dracula-icons-main/symbolic/actions/caps-lock-symbolic.svg

<?xml version="1.0" encoding="UTF-8"?>
<svg xmlns="http://www.w3.org/2000/svg" xmlns:xlink="http://www.w3.org/1999/xlink" width="16" height="16" viewBox="0 0 16 16">
<path fill-rule="nonzero" fill="rgb(21.176471%, 21.176471%, 21.176471%)" fill-opacity="1" d="M 7.964844 0.5 C 7.683594 0.511719 7.421875 0.636719 7.242188 0.851562 L 1.242188 7.851562 C 1.085938 8.03125 1 8.261719 1 8.5 L 1 9 C 1 9.550781 1.449219 10 2 10 L 2 12 C 1.449219 12 1 12.449219 1 13 L 1 15 C 1 15.550781 1.449219 16 2 16 L 14 16 C 14.550781 16 15 15.550781 15 15 L 15 13 C 15 12.449219 14.550781 12 14 12 L 14 10 C 14.550781 10 15 9.550781 15 9 L 15 8.5 C 15 8.261719 14.914062 8.03125 14.761719 7.851562 L 8.761719 0.851562 C 8.5625 0.617188 8.269531 0.488281 7.964844 0.5 Z M 8 1.5 L 14 8.5 L 14 9 L 13 9 L 13 13 L 14 13 L 14 15 L 2 15 L 2 13 L 3 13 L 3 9 L 2 9 L 2 8.5 Z M 7.441406 7 L 5.296875 13 L 6.5 13 L 6.882812 12.011719 L 9.117188 12.011719 L 9.5 13 L 10.78125 13 L 8.515625 7 L 7.4375 7 Z M 8 8.714844 L 8.777344 11 L 7.21875 11 Z M 8 8.714844 "/>
</svg>

<svg width="16" height="16" version="1.1" viewBox="0 0 16 16" xmlns="http://www.w3.org/2000/svg">
 <path d="m7.9629 0.5a1.0001 1.0001 0 0 0-0.72266 0.34961l-6 7a1.0001 1.0001 0 0 0-0.24023 0.65039v0.5a1.0001 1.0001 0 0 0 1 1v2a1.0001 1.0001 0 0 0-1 1v2a1.0001 1.0001 0 0 0 1 1h12a1.0001 1.0001 0 0 0 1-1v-2a1.0001 1.0001 0 0 0-1-1v-2a1.0001 1.0001 0 0 0 1-1v-0.5a1.0001 1.0001 0 0 0-0.24023-0.65039l-6-7a1.0001 1.0001 0 0 0-0.79688-0.34961zm0.037109 1 6 7v0.5h-1v4h1v2h-12v-2h1v-4h-1v-0.5l6-7zm-0.56055 5.5-2.1445 6h1.2051l0.38281-0.98828h2.2324l0.38477 0.98828h1.2793l-2.2637-6h-1.0762zm0.56055 1.7148 0.77539 2.2852h-1.5547l0.7793-2.2852z" fill="#363636"/>
</svg>
